X: 2
T: The Dance Of The Honeybees
R: barndance
M: 4/4
L: 1/8
K: Dmaj
AG||:F2EF DFAF|GAFG E2EF|GFGA (3Bcd ed|cded cAGE|F2EF DFAF|GAFG E2EF|GFGA (3Bcd ed|1 cAGE D2 (3AAG:|2 cAGE D2 (3ABc||:dAaA fAdA|(3Bcd AF DEFA|Beed efed|cdef (3ggg fe|dAaA fAdA|(3Bcd AF DEFA|Beed cded|1 cAGE D2 (3ABc:|2 cAGE D4||


Tune 130	Setting 12739

